X:1
T:Edward
M:4/4
L:1/4
K:F
 G| A c d e/2e/2| d/2d/2 c A3/2 G/2| A c d e| d- c- A| A| c A c A/2A/2|\
A/2-G/2 E D c| A3/2 G/2A/2-G/2 E| D F G3/2| c/2| A3/2 G/2A/2-G/2 E|\
 D3||
